icons/svgs/info-circle-solid.svg

<svg width="24" height="24" viewBox="0 0 24 24" fill="none" xmlns="http://www.w3.org/2000/svg">
<path d="M12 22C8.40625 22 5.125 20.125 3.32812 17C1.53125 13.9141 1.53125 10.125 3.32812 7C5.125 3.91406 8.40625 2 12 2C15.5547 2 18.8359 3.91406 20.6328 7C22.4297 10.125 22.4297 13.9141 20.6328 17C18.8359 20.125 15.5547 22 12 22ZM10.4375 15.125C9.89062 15.125 9.5 15.5547 9.5 16.0625C9.5 16.6094 9.89062 17 10.4375 17H13.5625C14.0703 17 14.5 16.6094 14.5 16.0625C14.5 15.5547 14.0703 15.125 13.5625 15.125H13.25V11.6875C13.25 11.1797 12.8203 10.75 12.3125 10.75H10.4375C9.89062 10.75 9.5 11.1797 9.5 11.6875C9.5 12.2344 9.89062 12.625 10.4375 12.625H11.375V15.125H10.4375ZM12 7C11.2969 7 10.75 7.58594 10.75 8.25C10.75 8.95312 11.2969 9.5 12 9.5C12.6641 9.5 13.25 8.95312 13.25 8.25C13.25 7.58594 12.6641 7 12 7Z" fill="black"/>
</svg>

<svg xmlns="http://www.w3.org/2000/svg" width="24" height="24" fill="currentColor" class="icon-info-circle-solid" viewBox="0 0 24 24">
  <mask id="a" width="21" height="20" x="1" y="2" maskUnits="userSpaceOnUse" style="mask-type:alpha">
    <path d="M12 22c-3.594 0-6.875-1.875-8.672-5-1.797-3.086-1.797-6.875 0-10C5.125 3.914 8.406 2 12 2c3.555 0 6.836 1.914 8.633 5 1.797 3.125 1.797 6.914 0 10A9.93 9.93 0 0 1 12 22m-1.562-6.875a.925.925 0 0 0-.938.938c0 .546.39.937.938.937h3.124c.508 0 .938-.39.938-.937a.95.95 0 0 0-.937-.938h-.313v-3.437a.95.95 0 0 0-.937-.938h-1.876a.925.925 0 0 0-.937.938c0 .546.39.937.938.937h.937v2.5zM12 7c-.703 0-1.25.586-1.25 1.25 0 .703.547 1.25 1.25 1.25.664 0 1.25-.547 1.25-1.25C13.25 7.586 12.664 7 12 7"/>
  </mask>
  <g mask="url(#a)">
    <path d="M0 0h24v24H0z"/>
  </g>
</svg>
